X: 10112
Q: "Slow."
M: 3/4
L: 1/4
K: Bb
efg | fgd | c3 | c2A |\
gaf | =efg | g3 | f2 |]
f |\
fga | b2a | gfe | d2b |\
abg | ^fga | a3 | g3 |\
fga | bfg | fge | c2d |\


